src/banks/rbs.svg

<svg width="256" height="256" viewBox="0 0 256 256" fill="none" xmlns="http://www.w3.org/2000/svg">
<path d="M0 0H256V256H0V0Z" fill="white"/>
<path d="M76.4655 126.838H65.8906C63.6427 126.838 61.5581 125.507 60.8935 123.515C58.979 117.945 53.4829 115.948 53.4829 115.948C51.4845 115.201 49.9852 113.293 49.9852 110.965V100.409C49.9852 97.5085 52.4009 95.1812 55.3134 95.1812C58.2282 95.1812 60.56 97.341 60.56 100.409L60.4784 108.885L72.7182 96.6776C74.8005 94.597 78.1304 94.597 80.2127 96.6776C82.295 98.7446 82.295 102.152 80.2127 104.232L68.1362 116.2H76.4655C79.3825 116.2 81.7937 118.611 81.7937 121.515C81.7937 124.427 79.3825 126.838 76.4655 126.838ZM76.3816 139.625L67.889 139.543L80.1288 151.76C82.2111 153.838 82.2111 157.161 80.1288 159.242C78.0488 161.318 74.7166 161.318 72.6366 159.242L60.5601 147.189V155.497C60.5601 158.658 58.1466 160.82 55.2295 160.82C52.317 160.82 49.9012 158.409 49.9012 155.497V144.945C49.9012 142.699 51.3167 140.619 53.3174 139.958C58.8951 138.045 60.8096 132.568 60.8096 132.568C61.5581 130.576 63.5588 129.079 65.8067 129.079H76.3816C79.2964 129.079 81.7121 131.493 81.7121 134.395C81.7121 137.297 79.5481 139.625 76.3816 139.625ZM42.3319 160.736C39.4171 160.736 37.0853 158.823 37.1669 155.497L37.2508 147.021L25.011 159.242C22.931 161.318 19.5149 161.318 17.5188 159.242C15.4342 157.161 15.4342 153.752 17.5188 151.76L29.5068 139.706H21.2638C18.2651 139.706 15.9355 137.297 15.9355 134.395C15.9355 131.493 18.2651 129.079 21.2638 129.079H31.8409C34.0866 129.079 36.0872 130.411 36.8358 132.403C38.7502 138.045 44.1624 139.958 44.1624 139.958C46.2424 140.705 47.6624 142.618 47.6624 144.945V155.497C47.6624 158.409 45.3283 160.736 42.3318 160.736H42.3319ZM44.2463 116.034C38.6662 118.029 36.7518 123.429 36.7518 123.429C36.001 125.423 34.0049 126.922 31.7547 126.922H21.1798C18.265 126.922 15.8516 124.511 15.8516 121.602C15.8516 118.695 17.8499 116.367 21.1798 116.367L29.6769 116.449L17.4326 104.232C15.3503 102.152 15.3503 98.8307 17.4326 96.7592C19.5149 94.6809 22.8448 94.6809 24.9271 96.7592L37.0013 108.803V100.492C37.0013 97.5924 39.3331 95.1812 42.3318 95.1812C45.2444 95.1812 47.5762 97.5924 47.5762 100.492V111.045C47.5762 113.293 46.2424 115.367 44.2463 116.034Z" fill="#15366F"/>
<path d="M216.248 161.15C210.586 161.15 203.428 160.24 199.851 159.157L202.684 147.518C205.256 148.684 211.004 150.511 216.248 150.511C222.579 150.511 227.324 147.77 227.324 142.198C227.324 137.464 224.407 134.976 216.248 131.825C207.923 128.583 201.016 124.591 201.016 112.792C201.016 101.239 210.169 94.8477 224.076 94.8477C229.987 94.8477 235.983 96.0114 239.564 97.1751L236.817 108.47C234.401 107.141 229.738 105.477 224.076 105.477C217.33 105.477 214.334 108.056 214.334 112.457C214.334 116.948 217.664 118.61 224.906 121.768C234.903 126.009 241.15 130.245 241.15 141.367C241.15 153.67 231.321 161.15 216.248 161.15ZM171.54 132.072H163.884V150.677H171.955C178.286 150.677 183.197 148.184 183.197 141.29C183.197 134.976 178.619 132.072 171.54 132.072ZM171.621 105.563H163.884V122.434H171.038C176.453 122.434 181.117 119.525 181.117 113.706C181.117 108.219 177.784 105.563 171.621 105.563ZM172.288 160.572H151.311V95.6785H173.37C186.03 95.6785 194.357 101.823 194.357 112.626C194.357 120.274 189.276 124.591 184.446 126.504C191.108 128.25 196.521 132.819 196.521 141.367C196.521 152.674 187.779 160.572 172.288 160.572ZM119.176 105.644H112.763V124.177H117.76C124.506 124.177 129.41 121.268 129.41 114.952C129.41 109.382 125.829 105.644 119.176 105.644ZM131.243 160.572C127.328 152.674 120.26 140.206 116.093 133.731H112.763V160.572H100.271V95.6785H120.843C134.407 95.6785 142.485 102.153 142.485 115.117C142.485 124.01 136.072 129.495 129.331 131.741C133.659 137.63 141.986 152.092 146.148 160.572H131.243Z" fill="#15366F"/>
</svg>

<svg xmlns="http://www.w3.org/2000/svg" viewBox="0 0 256 256"><path fill="#fff" d="M0 0h256v256H0z"/><path fill="#15366F" d="M76.466 126.838H65.89c-2.248 0-4.333-1.331-4.998-3.323-1.914-5.57-7.41-7.567-7.41-7.567-1.998-.747-3.498-2.655-3.498-4.983v-10.556c0-2.9 2.416-5.228 5.328-5.228 2.915 0 5.247 2.16 5.247 5.228l-.082 8.476 12.24-12.207a5.28 5.28 0 0 1 7.495 0c2.082 2.067 2.082 5.474 0 7.554L68.136 116.2h8.33c2.916 0 5.328 2.411 5.328 5.315 0 2.912-2.412 5.323-5.328 5.323m-.084 12.787-8.493-.082 12.24 12.217a5.26 5.26 0 0 1 0 7.482 5.285 5.285 0 0 1-7.492 0L60.56 147.189v8.308c0 3.161-2.413 5.323-5.33 5.323-2.913 0-5.329-2.411-5.329-5.323v-10.552c0-2.246 1.416-4.326 3.416-4.987 5.578-1.913 7.493-7.39 7.493-7.39.748-1.992 2.749-3.489 4.997-3.489h10.575c2.914 0 5.33 2.414 5.33 5.316s-2.164 5.23-5.33 5.23m-34.05 21.111c-2.915 0-5.247-1.913-5.165-5.239l.084-8.476-12.24 12.221c-2.08 2.076-5.496 2.076-7.492 0-2.085-2.081-2.085-5.49 0-7.482l11.988-12.054h-8.243a5.304 5.304 0 0 1-5.328-5.311 5.31 5.31 0 0 1 5.328-5.316H31.84c2.246 0 4.246 1.332 4.995 3.324 1.914 5.642 7.326 7.555 7.326 7.555 2.08.747 3.5 2.66 3.5 4.987v10.552c0 2.912-2.334 5.239-5.33 5.239m1.914-44.702c-5.58 1.995-7.494 7.395-7.494 7.395-.751 1.994-2.747 3.493-4.997 3.493H21.18c-2.915 0-5.328-2.411-5.328-5.32 0-2.907 1.998-5.235 5.328-5.235l8.497.082-12.244-12.217a5.25 5.25 0 0 1 0-7.473 5.284 5.284 0 0 1 7.494 0l12.074 12.044v-8.311c0-2.9 2.332-5.31 5.33-5.31 2.913 0 5.245 2.41 5.245 5.31v10.553c0 2.248-1.334 4.322-3.33 4.989m172.002 45.116c-5.662 0-12.82-.91-16.397-1.993l2.833-11.639c2.572 1.166 8.32 2.993 13.564 2.993 6.331 0 11.076-2.741 11.076-8.313 0-4.734-2.917-7.222-11.076-10.373-8.325-3.242-15.232-7.234-15.232-19.033 0-11.553 9.153-17.944 23.06-17.944 5.911 0 11.907 1.163 15.488 2.327l-2.747 11.295c-2.416-1.329-7.079-2.993-12.741-2.993-6.746 0-9.742 2.579-9.742 6.98 0 4.491 3.33 6.153 10.572 9.311 9.997 4.241 16.244 8.477 16.244 19.599 0 12.303-9.829 19.783-24.902 19.783m-44.708-29.078h-7.656v18.605h8.071c6.331 0 11.242-2.493 11.242-9.387 0-6.314-4.578-9.218-11.657-9.218m.081-26.509h-7.737v16.871h7.154c5.415 0 10.079-2.909 10.079-8.728 0-5.487-3.333-8.143-9.496-8.143m.667 55.009h-20.977V95.679h22.059c12.66 0 20.987 6.144 20.987 16.947 0 7.648-5.081 11.965-9.911 13.878 6.662 1.746 12.075 6.315 12.075 14.863 0 11.307-8.742 19.205-24.233 19.205m-53.112-54.928h-6.413v18.533h4.997c6.746 0 11.65-2.909 11.65-9.225 0-5.57-3.581-9.308-10.234-9.308m12.067 54.928c-3.915-7.898-10.983-20.366-15.15-26.841h-3.33v26.841h-12.492V95.679h20.572c13.564 0 21.642 6.474 21.642 19.438 0 8.893-6.413 14.378-13.154 16.624 4.328 5.889 12.655 20.351 16.817 28.831z"/></svg>
